svg/monitor_eye.svg

<svg xmlns="http://www.w3.org/2000/svg" viewBox="0 0 24 24"><path d="M3 4v12h18V4zm0-2h18a2 2 0 0 1 2 2v12c0 .53-.21 1.04-.59 1.41-.37.38-.88.59-1.41.59h-7v2h2v2H8v-2h2v-2H3c-.53 0-1.04-.21-1.41-.59C1.21 17.04 1 16.53 1 16V4c0-1.11.89-2 2-2m7.84 6.93c.31-.3.73-.48 1.16-.48.43.01.85.18 1.16.49.3.3.48.72.48 1.15 0 .44-.18.85-.48 1.16-.31.31-.73.48-1.16.48s-.85-.18-1.16-.48c-.3-.31-.48-.72-.48-1.16 0-.43.18-.85.48-1.16M10.07 12a2.68 2.68 0 0 0 3.86 0c.51-.5.8-1.19.8-1.91s-.29-1.42-.8-1.93-1.21-.8-1.93-.8-1.42.29-1.93.8-.8 1.21-.8 1.93.29 1.41.8 1.91M6 10.09A6.45 6.45 0 0 1 12 6c2.73 0 5.06 1.7 6 4.09a6.42 6.42 0 0 1-6 4.09c-2.73 0-5.06-1.68-6-4.09"/></svg>

<?xml version="1.0" encoding="UTF-8"?><!DOCTYPE svg PUBLIC "-//W3C//DTD SVG 1.1//EN" "http://www.w3.org/Graphics/SVG/1.1/DTD/svg11.dtd"><svg xmlns="http://www.w3.org/2000/svg" xmlns:xlink="http://www.w3.org/1999/xlink" version="1.1" id="mdi-monitor-eye" width="24" height="24" viewBox="0 0 24 24"><path d="M3 4V16H21V4H3M3 2H21C22.1 2 23 2.89 23 4V16C23 16.53 22.79 17.04 22.41 17.41C22.04 17.79 21.53 18 21 18H14V20H16V22H8V20H10V18H3C2.47 18 1.96 17.79 1.59 17.41C1.21 17.04 1 16.53 1 16V4C1 2.89 1.89 2 3 2M10.84 8.93C11.15 8.63 11.57 8.45 12 8.45C12.43 8.46 12.85 8.63 13.16 8.94C13.46 9.24 13.64 9.66 13.64 10.09C13.64 10.53 13.46 10.94 13.16 11.25C12.85 11.56 12.43 11.73 12 11.73C11.57 11.73 11.15 11.55 10.84 11.25C10.54 10.94 10.36 10.53 10.36 10.09C10.36 9.66 10.54 9.24 10.84 8.93M10.07 12C10.58 12.53 11.28 12.82 12 12.82C12.72 12.82 13.42 12.53 13.93 12C14.44 11.5 14.73 10.81 14.73 10.09C14.73 9.37 14.44 8.67 13.93 8.16C13.42 7.65 12.72 7.36 12 7.36C11.28 7.36 10.58 7.65 10.07 8.16C9.56 8.67 9.27 9.37 9.27 10.09C9.27 10.81 9.56 11.5 10.07 12M6 10.09C6.94 7.7 9.27 6 12 6C14.73 6 17.06 7.7 18 10.09C17.06 12.5 14.73 14.18 12 14.18C9.27 14.18 6.94 12.5 6 10.09Z" /></svg>
